X:1
T: The Merry Conceit
N:
C:
S:
A:
O:
R:
M:6/8
K:D
I:speed 170
%W:
% voice 1 (1 lines, 19 notes)
K:D
M:6/8
L:1/16
A2 |d2 f2 d2 e2 g2 e2 f6 d4 c2 B2 c2 d2 e2 B2 d2 c6 A4 G2 |
%W:
% voice 1 (1 lines, 19 notes)
F2 A2 d2 G2 B2 d2 F2 A2 d2 E4 G2 F2 A2 d2 d4 c2 d6d4 A2 |
%W:
% voice 1 (1 lines, 18 notes)
d2 f2 d2 e2 g2 e2 f6 d4 c2 B2 c2 d2 e2 B2 d2 c6 A4 G2 |
%W:
% voice 1 (1 lines, 19 notes)
F2 A2 d2 G2 B2 d2 F2 A2 d2 E4 G2 F2 A2 d2 d4 c2 d6d4 f2 |
%W:
% voice 1 (1 lines, 18 notes)
e2 c2 A2 A2 c2 e2 f6 d4 c2 B2 c2 d2 c2 d2 B2 ^A6 F4 c2 |
%W:
% voice 1 (1 lines, 22 notes)
d2 f2 d2 c2 f2 c2 d2 f2 d2 c2 f2 c2 d2 c2 B2 F2 B2 ^A2 B6B4 B c |
%W:
% voice 1 (1 lines, 22 notes)
d2 c2 B2 A2 G2 F2 E2 F2 G2 F2 G2 A2 B2 c2 d2 e2 B2 d2 c6 A4 d e |
%W:
% voice 1 (1 lines, 16 notes)
f4 z2 g4 z2 f4 z2 e2 c2 A2 B2 c2 d2 d4 c2 d6d4 ||
